images/partners/geekle-92-71.svg

<svg width="93" height="72" viewBox="0 0 93 72" fill="none" xmlns="http://www.w3.org/2000/svg">
<path d="M68.326 24.1214C68.1693 26.1247 67.7429 28.0974 67.0587 29.9859C65.6516 33.8777 63.1914 37.2987 59.9544 39.865C56.0232 43.005 51.1452 44.7106 46.1209 44.702C43.1959 44.7021 40.2995 44.124 37.5972 43.0006C34.8948 41.8772 32.4394 40.2306 30.3711 38.1549C28.3028 36.0792 26.6622 33.6149 25.5429 30.9028C24.4236 28.1906 23.8476 25.2838 23.8477 22.3482C23.8486 16.4204 26.1958 10.7359 30.3727 6.54476C34.5497 2.35371 40.2145 -0.000493385 46.1209 2.08335e-05C49.2566 -0.00428155 52.3575 0.657834 55.2198 1.94278C58.0821 3.22773 60.6409 5.10639 62.7278 7.45517L58.4141 11.1398C56.8587 9.4186 54.9611 8.04356 52.8438 7.10335C50.7264 6.16314 48.4362 5.67863 46.1209 5.68105C41.7169 5.68253 37.4937 7.43896 34.3797 10.5643C31.2656 13.6896 29.5155 17.9281 29.514 22.348C29.5146 26.7682 31.2643 31.0072 34.3787 34.1327C37.493 37.2582 41.7167 39.0143 46.1209 39.015C50.1556 39.0224 54.0534 37.5474 57.0786 34.8681C58.64 33.4944 59.9299 31.8381 60.8809 29.9856H49.4231L50.5599 24.1211L68.326 24.1214Z" fill="#161616"/>
<path d="M48.3087 15.321C48.3074 16.739 47.7451 18.0985 46.7456 19.1007C45.7459 20.1029 44.3907 20.6658 42.9777 20.6656C41.5656 20.6646 40.2117 20.1012 39.2132 19.0991C38.2147 18.097 37.6533 16.7381 37.6523 15.321C37.6521 13.9029 38.213 12.5428 39.2115 11.5395C40.2101 10.5363 41.5648 9.97199 42.9777 9.9707C44.3915 9.97084 45.7475 10.5345 46.7471 11.5379C47.7469 12.5412 48.3086 13.902 48.3087 15.321Z" fill="#161616"/>
<path d="M21.6491 22.3503C21.6465 18.3211 22.6326 14.3531 24.5204 10.7971C26.4082 7.2411 29.1395 4.20634 32.473 1.96094C21.649 5.06554 10.8246 11.862 0 22.3503C10.824 32.8422 21.6483 39.6389 32.473 42.7403C29.1395 40.4948 26.4082 37.4599 24.5204 33.9038C22.6326 30.3476 21.6465 26.3796 21.6491 22.3503Z" fill="#161616"/>
<path d="M59.7656 1.96094C63.0992 4.20629 65.8307 7.241 67.7186 10.797C69.6065 14.3531 70.5928 18.321 70.5903 22.3503C70.5928 26.3797 69.6065 30.3477 67.7186 33.9039C65.8307 37.46 63.0994 40.4949 59.7656 42.7403C70.5898 39.635 81.4141 32.8383 92.2384 22.3503C81.4144 11.859 70.5902 5.06248 59.7656 1.96094Z" fill="#161616"/>
<path d="M1.62109 62.4595V59.7833L10.1912 55.7695V58.9426L5.56344 61.0451L10.1912 63.1476V66.4733L1.62109 62.4595Z" fill="#161616"/>
<path d="M90.6521 59.7833V62.4595L82.082 66.473V63.3003L86.7097 61.1979L82.082 59.0952V55.7695L90.6521 59.7833Z" fill="#161616"/>
<path d="M21.692 71.7253C18.2634 71.7253 16.3594 70.8842 16.3594 69.3549C16.3594 68.5137 17.0452 67.864 18.188 67.6345C17.4074 67.1949 16.9311 66.5069 16.9311 65.7615C16.9311 64.7674 17.5977 64.0221 18.836 63.5826C18.3824 63.2874 18.0103 62.8822 17.7541 62.4045C17.4978 61.9269 17.3656 61.392 17.3697 60.8495C17.3619 60.3625 17.4682 59.8804 17.68 59.4422C17.8917 59.0039 18.203 58.6215 18.5889 58.3261C19.4077 57.657 20.4742 57.313 21.7693 57.313C23.1407 57.313 24.3022 57.7145 25.1217 58.4789C25.6551 57.7907 26.4547 57.4659 27.6166 57.4659V59.9129C27.095 59.8953 26.574 59.9598 26.0723 60.104C26.1308 60.3483 26.1627 60.5983 26.1674 60.8495C26.1773 61.3395 26.072 61.825 25.8602 62.2666C25.6484 62.7082 25.3361 63.0936 24.9483 63.3916C24.1294 64.0604 23.0819 64.3857 21.7679 64.3857C21.3067 64.3821 20.8471 64.3309 20.3964 64.2328C19.9393 64.3668 19.6916 64.5386 19.6916 64.787C19.6916 65.1501 19.9203 65.2651 20.4726 65.2651H24.2243C26.4144 65.2651 27.653 66.2779 27.653 68.0179C27.653 70.33 25.4058 71.7253 21.692 71.7253ZM21.7301 69.6419C23.768 69.6419 24.7392 69.3171 24.7392 68.6479C24.7392 68.2846 24.4154 68.0743 23.8822 68.0743H21.0631C19.7872 68.0743 19.2538 68.2846 19.2538 68.8196C19.2543 69.3744 20.0542 69.6419 21.7301 69.6419ZM21.7872 59.4164C20.8922 59.4164 20.3778 59.9323 20.3778 60.85C20.3778 61.7483 20.9302 62.3029 21.7872 62.3029C22.6443 62.3029 23.1776 61.7676 23.1776 60.85C23.1776 59.9323 22.6823 59.4164 21.7872 59.4164Z" fill="#161616"/>
<path d="M29.6567 66.1825C28.7424 65.2459 28.2852 64.0036 28.2852 62.4364C28.2852 60.9455 28.7614 59.7223 29.6946 58.7659C30.6276 57.7911 31.8279 57.313 33.2938 57.313C34.646 57.313 35.7505 57.7334 36.57 58.5935C37.4081 59.4537 37.8269 60.5817 37.8269 62.0147C37.8269 62.4735 37.7888 62.8941 37.7698 63.2191H31.4284C31.6379 64.4613 32.3045 65.0543 33.6568 65.0543C34.5286 65.0208 35.354 64.651 35.9609 64.022L37.6372 65.8951C36.6276 67.0422 35.2752 67.5581 33.3521 67.5581C31.8093 67.5587 30.571 67.1001 29.6567 66.1825ZM31.4853 61.2706H34.7037C34.6853 60.2001 34.152 59.6451 33.2377 59.6451C32.3234 59.6451 31.7138 60.2001 31.4853 61.2706Z" fill="#161616"/>
<path d="M40.4417 66.1825C39.5274 65.2459 39.0703 64.0036 39.0703 62.4364C39.0703 60.9455 39.5462 59.7223 40.4796 58.7659C41.4128 57.7911 42.613 57.313 44.0789 57.313C45.4312 57.313 46.5356 57.7334 47.3551 58.5935C48.1933 59.4537 48.6122 60.5817 48.6122 62.0147C48.6122 62.4735 48.5741 62.8941 48.555 63.2191H42.213C42.4224 64.4613 43.089 65.0543 44.4413 65.0543C45.3132 65.0209 46.1386 64.6511 46.7456 64.022L48.4219 65.8951C47.4123 67.0422 46.0599 67.5581 44.1368 67.5581C42.5939 67.5587 41.3559 67.1001 40.4417 66.1825ZM42.2703 61.2706H45.4891C45.47 60.2 44.9367 59.6456 44.0226 59.6456C43.1084 59.6456 42.499 60.2001 42.2703 61.2706Z" fill="#161616"/>
<path d="M56.5293 61.3953L60.3575 67.3397H56.5478L54.2249 63.517L53.5203 64.2621V67.3397H50.3203V53.3867H53.5203V60.6309L56.3771 57.5535H60.224L56.5293 61.3953Z" fill="#161616"/>
<path d="M61.4297 67.3397V53.3867H64.6297V67.3397H61.4297Z" fill="#161616"/>
<path d="M67.6995 66.1825C66.7852 65.2459 66.3281 64.0036 66.3281 62.4364C66.3281 60.9455 66.8043 59.7223 67.7375 58.7659C68.6707 57.7911 69.8709 57.313 71.3368 57.313C72.6891 57.313 73.7936 57.7334 74.6131 58.5935C75.4513 59.4537 75.87 60.5817 75.87 62.0147C75.87 62.4735 75.8321 62.8941 75.813 63.2191H69.4706C69.6802 64.4613 70.3466 65.0543 71.6989 65.0543C72.5708 65.0208 73.3962 64.651 74.0032 64.022L75.6795 65.8951C74.6701 67.0422 73.3175 67.5581 71.3944 67.5581C69.8516 67.5587 68.6138 67.1001 67.6995 66.1825ZM69.5282 61.2706H72.7467C72.7277 60.2 72.1945 59.6456 71.2803 59.6456C70.3662 59.6456 69.7568 60.2001 69.5282 61.2706Z" fill="#161616"/>
</svg>

<svg width="93" height="72" fill="none" xmlns="http://www.w3.org/2000/svg"><path d="M68.326 24.121a22.329 22.329 0 01-1.267 5.865 22.267 22.267 0 01-7.105 9.879 22.104 22.104 0 01-13.833 4.837 22.21 22.21 0 01-8.524-1.701 22.27 22.27 0 01-7.226-4.846 22.358 22.358 0 01-4.828-7.252 22.424 22.424 0 01-1.695-8.555 22.393 22.393 0 016.525-15.803A22.23 22.23 0 0146.12 0a22.141 22.141 0 019.099 1.943 22.215 22.215 0 017.508 5.512l-4.314 3.685a16.575 16.575 0 00-5.57-4.037 16.522 16.522 0 00-6.723-1.422 16.582 16.582 0 00-11.741 4.883 16.703 16.703 0 00-.001 23.569 16.58 16.58 0 0011.742 4.882 16.48 16.48 0 0010.958-4.147 16.6 16.6 0 003.802-4.882H49.423l1.137-5.865h17.766z" fill="#161616"/><path d="M48.309 15.321a5.36 5.36 0 01-1.563 3.78 5.32 5.32 0 01-3.768 1.565 5.32 5.32 0 01-3.765-1.567 5.358 5.358 0 01-.002-7.56 5.32 5.32 0 013.767-1.568c1.413 0 2.77.563 3.77 1.567a5.36 5.36 0 011.56 3.783zM21.65 22.35a24.607 24.607 0 012.87-11.553 24.507 24.507 0 017.953-8.836C21.649 5.066 10.825 11.862 0 22.35c10.824 10.491 21.648 17.288 32.473 20.39a24.508 24.508 0 01-7.953-8.837 24.609 24.609 0 01-2.87-11.554zM59.766 1.96a24.507 24.507 0 017.953 8.837A24.608 24.608 0 0170.59 22.35a24.609 24.609 0 01-2.871 11.554 24.506 24.506 0 01-7.953 8.836c10.824-3.105 21.648-9.902 32.472-20.39C81.414 11.86 70.59 5.062 59.766 1.96zM1.621 62.46v-2.677l8.57-4.014v3.174l-4.628 2.102 4.628 2.103v3.325l-8.57-4.014zm89.031-2.677v2.676l-8.57 4.014V63.3l4.628-2.102-4.628-2.103V55.77l8.57 4.013zm-68.96 11.942c-3.429 0-5.333-.84-5.333-2.37 0-.841.686-1.491 1.829-1.72-.78-.44-1.257-1.128-1.257-1.874 0-.994.667-1.739 1.905-2.178a3.223 3.223 0 01-1.466-2.733 3.12 3.12 0 011.219-2.524c.819-.669 1.885-1.013 3.18-1.013 1.372 0 2.533.401 3.353 1.166.533-.688 1.333-1.013 2.495-1.013v2.447a4.982 4.982 0 00-1.545.191c.059.244.09.494.095.745a3.131 3.131 0 01-1.219 2.543c-.819.668-1.866.994-3.18.994a6.694 6.694 0 01-1.372-.153c-.457.134-.704.306-.704.554 0 .363.228.478.78.478h3.752c2.19 0 3.429 1.013 3.429 2.753 0 2.312-2.247 3.707-5.961 3.707zm.038-2.083c2.038 0 3.01-.325 3.01-.994 0-.363-.325-.574-.858-.574h-2.819c-1.276 0-1.81.21-1.81.746.001.554.801.822 2.477.822zm.057-10.226c-.895 0-1.41.516-1.41 1.434 0 .898.553 1.453 1.41 1.453.857 0 1.39-.535 1.39-1.453s-.495-1.434-1.39-1.434zm7.87 6.767c-.915-.937-1.372-2.18-1.372-3.747 0-1.49.476-2.714 1.41-3.67.933-.975 2.133-1.453 3.599-1.453 1.352 0 2.457.42 3.276 1.28.838.86 1.257 1.989 1.257 3.422 0 .459-.038.88-.057 1.204h-6.342c.21 1.242.876 1.835 2.229 1.835a3.382 3.382 0 002.304-1.032l1.676 1.873c-1.01 1.147-2.362 1.663-4.285 1.663-1.543 0-2.781-.458-3.695-1.376zm1.828-4.912h3.219c-.019-1.07-.552-1.626-1.466-1.626-.915 0-1.524.555-1.753 1.626zm8.957 4.912c-.915-.937-1.372-2.18-1.372-3.747 0-1.49.476-2.714 1.41-3.67.933-.975 2.133-1.453 3.599-1.453 1.352 0 2.457.42 3.276 1.28.838.86 1.257 1.989 1.257 3.422 0 .459-.038.88-.057 1.204h-6.342c.21 1.242.876 1.835 2.228 1.835a3.382 3.382 0 002.305-1.032l1.676 1.873c-1.01 1.147-2.362 1.663-4.285 1.663-1.543 0-2.781-.458-3.695-1.376zm1.828-4.912h3.22c-.02-1.071-.553-1.625-1.467-1.625-.915 0-1.524.554-1.753 1.625zm14.26.124l3.828 5.945h-3.81l-2.323-3.823-.705.745v3.078h-3.2V53.387h3.2v7.244l2.857-3.078h3.847l-3.695 3.842zm4.9 5.945V53.387h3.2V67.34h-3.2zm6.27-1.157c-.915-.937-1.372-2.18-1.372-3.747 0-1.49.476-2.714 1.41-3.67.933-.975 2.133-1.453 3.599-1.453 1.352 0 2.457.42 3.276 1.28.838.86 1.257 1.989 1.257 3.422 0 .459-.038.88-.057 1.204h-6.342c.21 1.242.876 1.835 2.228 1.835a3.383 3.383 0 002.304-1.032l1.677 1.873c-1.01 1.147-2.363 1.663-4.286 1.663-1.542 0-2.78-.458-3.695-1.376zm1.828-4.912h3.219c-.02-1.071-.552-1.625-1.467-1.625-.914 0-1.523.554-1.752 1.625z" fill="#161616"/></svg>
